X: 355
T:Planxty Reynolds
M:6/8
L:1/8
R:Jig
Z:Kevin Gow
K:G
dc|BAG BAG|Bdd d2d|e/f/ge dcB|ABA ABc|!
BAG BAG|Bdd d2d|e/f/ge f/g/af|gag g2z:|!
gag gbg|f2d d2d|gfe dcB|ABA Adc|!
BAG BAG|Bdd d2d|e/f/ge f/g/af|gag g2z:|!

